X:400
T: Bucheklopper (4-99), S. 132
N: P0670
O: Lothringen
S: PINCK, Louis: Verklingende Weisen Bd 4, Kassel 1939]
R: Tanzweise]
M: 2/4
L: 1/16
K: G
D2 | G4A4 | d3cB2G2 | c3AA2A2 | B3GG2
D2 | G4A4 | d3cB2G2 | c3AA2F2 | G4z4
d4e4 | A2A2A4
B4d4 | G2G2G4
d2d2d4 | c2c2c4
f3edcAF | G2G2G2

